X: 13052
T: Finlay M. MacRae
R: jig
M: 6/8
K: Amixolydian
|:e>dBA2A|a>ge g2a|e>dB G>GG|g>ed e<gd|
e>dBA2A|a>ge g2a|e>de e<gG|A3A2 !invisible!|1 B/<d/:|2 e/<g/||
|:a>ega2g|A>ag e>dd|e<ge d2B|G>dA B>GG|
a>ega2g|A>ag e>dd|e<ge d>Be|A3 !invisible!|1 A2 e/<g/:|2 A3||

